app/assets/images/icons/active/flights.svg

<?xml version="1.0" encoding="UTF-8" standalone="no"?>
<svg width="32px" height="232px" viewBox="0 0 32 232" version="1.1" xmlns="http://www.w3.org/2000/svg" xmlns:xlink="http://www.w3.org/1999/xlink" xmlns:sketch="http://www.bohemiancoding.com/sketch/ns">
    <title>flights</title>
    <description>Created with Sketch (http://www.bohemiancoding.com/sketch)</description>
    <defs></defs>
    <g id="Categories" stroke="none" stroke-width="1" fill="none" fill-rule="evenodd" sketch:type="MSPage">
        <path d="M23.383,126.61875 L20.556,129.44775 L7.06,128.13675 C5.923,128.14875 5.004,129.06875 5,130.19575 C5.004,131.32875 5.735,131.86175 7.112,132.39275 L15.186,134.81675 L11.138,138.86575 C10.849,139.15475 10.667,139.50575 10.577,139.87475 L6.304,139.68975 C5.804,139.68375 5.39,140.09775 5.387,140.60775 C5.396,141.11175 5.804,141.51975 6.304,141.52575 L10.461,142.55275 L11.398,146.70875 C11.521,147.29675 11.908,147.62275 12.41,147.63075 C12.92,147.62675 13.334,147.21275 13.33,146.71275 L13.143,142.41575 C13.504,142.32475 13.849,142.14475 14.133,141.86175 L18.186,137.80675 L20.618,145.89675 C21.149,147.27575 21.683,148.00775 22.814,148.00975 C23.943,148.00775 24.863,147.08775 24.872,145.94975 L23.562,132.43175 L26.379,129.61575 C27.204,128.78975 27.206,127.44975 26.384,126.61875 C25.555,125.79275 24.208,125.79475 23.383,126.61875 Z M23.383,126.61875" id="flights--lp-blue" fill="#206FAC" sketch:type="MSShapeGroup"></path>
        <path d="M23.383,86.6187502 L20.556,89.4477502 L7.06,88.1367502 C5.923,88.1487502 5.004,89.0687502 5,90.1957502 C5.004,91.3287502 5.735,91.8617502 7.112,92.3927502 L15.186,94.8167502 L11.138,98.8657502 C10.849,99.1547502 10.667,99.5057502 10.577,99.8747502 L6.304,99.6897502 C5.804,99.6837502 5.39,100.09775 5.387,100.60775 C5.396,101.11175 5.804,101.51975 6.304,101.52575 L10.461,102.55275 L11.398,106.70875 C11.521,107.29675 11.908,107.62275 12.41,107.63075 C12.92,107.62675 13.334,107.21275 13.33,106.71275 L13.143,102.41575 C13.504,102.32475 13.849,102.14475 14.133,101.86175 L18.186,97.8067502 L20.618,105.89675 C21.149,107.27575 21.683,108.00775 22.814,108.00975 C23.943,108.00775 24.863,107.08775 24.872,105.94975 L23.562,92.4317502 L26.379,89.6157502 C27.204,88.7897502 27.206,87.4497502 26.384,86.6187502 C25.555,85.7927502 24.208,85.7947502 23.383,86.6187502 Z M23.383,86.6187502" id="flights--white" fill="#FFFFFF" sketch:type="MSShapeGroup"></path>
        <path d="M23.383,46.6187502 L20.556,49.4477502 L7.06,48.1367502 C5.923,48.1487502 5.004,49.0687502 5,50.1957502 C5.004,51.3287502 5.735,51.8617502 7.112,52.3927502 L15.186,54.8167502 L11.138,58.8657502 C10.849,59.1547502 10.667,59.5057502 10.577,59.8747502 L6.304,59.6897502 C5.804,59.6837502 5.39,60.0977502 5.387,60.6077502 C5.396,61.1117502 5.804,61.5197502 6.304,61.5257502 L10.461,62.5527502 L11.398,66.7087502 C11.521,67.2967502 11.908,67.6227502 12.41,67.6307502 C12.92,67.6267502 13.334,67.2127502 13.33,66.7127502 L13.143,62.4157502 C13.504,62.3247502 13.849,62.1447502 14.133,61.8617502 L18.186,57.8067502 L20.618,65.8967502 C21.149,67.2757502 21.683,68.0077502 22.814,68.0097502 C23.943,68.0077502 24.863,67.0877502 24.872,65.9497502 L23.562,52.4317502 L26.379,49.6157502 C27.204,48.7897502 27.206,47.4497502 26.384,46.6187502 C25.555,45.7927502 24.208,45.7947502 23.383,46.6187502 Z M23.383,46.6187502" id="flights--body-grey" fill="#67737B" sketch:type="MSShapeGroup"></path>
        <path d="M23.383,6.61875023 L20.556,9.44775023 L7.06,8.13675023 C5.923,8.14875023 5.004,9.06875023 5,10.1957502 C5.004,11.3287502 5.735,11.8617502 7.112,12.3927502 L15.186,14.8167502 L11.138,18.8657502 C10.849,19.1547502 10.667,19.5057502 10.577,19.8747502 L6.304,19.6897502 C5.804,19.6837502 5.39,20.0977502 5.387,20.6077502 C5.396,21.1117502 5.804,21.5197502 6.304,21.5257502 L10.461,22.5527502 L11.398,26.7087502 C11.521,27.2967502 11.908,27.6227502 12.41,27.6307502 C12.92,27.6267502 13.334,27.2127502 13.33,26.7127502 L13.143,22.4157502 C13.504,22.3247502 13.849,22.1447502 14.133,21.8617502 L18.186,17.8067502 L20.618,25.8967502 C21.149,27.2757502 21.683,28.0077502 22.814,28.0097502 C23.943,28.0077502 24.863,27.0877502 24.872,25.9497502 L23.562,12.4317502 L26.379,9.61575023 C27.204,8.78975023 27.206,7.44975023 26.384,6.61875023 C25.555,5.79275023 24.208,5.79475023 23.383,6.61875023 Z M23.383,6.61875023" id="flights--title-grey" fill="#3A434E" sketch:type="MSShapeGroup"></path>
    </g>
</svg>

<svg width="32" height="232" viewBox="0 0 32 232" xmlns="http://www.w3.org/2000/svg" xmlns:sketch="http://www.bohemiancoding.com/sketch/ns"><title>flights</title><g sketch:type="MSPage" fill="none"><path d="M23.383 126.619l-2.827 2.829-13.496-1.311c-1.137.012-2.056.932-2.06 2.059.004 1.133.735 1.666 2.112 2.197l8.074 2.424-4.048 4.049c-.289.289-.471.64-.561 1.009l-4.273-.185c-.5-.006-.914.408-.917.918.009.504.417.912.917.918l4.157 1.027.937 4.156c.123.588.51.914 1.012.922.51-.004.924-.418.92-.918l-.187-4.297c.361-.091.706-.271.99-.554l4.053-4.055 2.432 8.09c.531 1.379 1.065 2.111 2.196 2.113 1.129-.002 2.049-.922 2.058-2.06l-1.31-13.518 2.817-2.816c.825-.826.827-2.166.005-2.997-.829-.826-2.176-.824-3.001 0zm0 0" fill="#206FAC" sketch:type="MSShapeGroup"/><path d="M23.383 86.619l-2.827 2.829-13.496-1.311c-1.137.012-2.056.932-2.06 2.059.004 1.133.735 1.666 2.112 2.197l8.074 2.424-4.048 4.049c-.289.289-.471.64-.561 1.009l-4.273-.185c-.5-.006-.914.408-.917.918.009.504.417.912.917.918l4.157 1.027.937 4.156c.123.588.51.914 1.012.922.51-.004.924-.418.92-.918l-.187-4.297c.361-.091.706-.271.99-.554l4.053-4.055 2.432 8.09c.531 1.379 1.065 2.111 2.196 2.113 1.129-.002 2.049-.922 2.058-2.06l-1.31-13.518 2.817-2.816c.825-.826.827-2.166.005-2.997-.829-.826-2.176-.824-3.001 0zm0 0" fill="#fff" sketch:type="MSShapeGroup"/><path d="M23.383 46.619l-2.827 2.829-13.496-1.311c-1.137.012-2.056.932-2.06 2.059.004 1.133.735 1.666 2.112 2.197l8.074 2.424-4.048 4.049c-.289.289-.471.64-.561 1.009l-4.273-.185c-.5-.006-.914.408-.917.918.009.504.417.912.917.918l4.157 1.027.937 4.156c.123.588.51.914 1.012.922.51-.004.924-.418.92-.918l-.187-4.297c.361-.091.706-.271.99-.554l4.053-4.055 2.432 8.09c.531 1.379 1.065 2.111 2.196 2.113 1.129-.002 2.049-.922 2.058-2.06l-1.31-13.518 2.817-2.816c.825-.826.827-2.166.005-2.997-.829-.826-2.176-.824-3.001 0zm0 0" fill="#67737B" sketch:type="MSShapeGroup"/><path d="M23.383 6.619l-2.827 2.829-13.496-1.311c-1.137.012-2.056.932-2.06 2.059.004 1.133.735 1.666 2.112 2.197l8.074 2.424-4.048 4.049c-.289.289-.471.64-.561 1.009l-4.273-.185c-.5-.006-.914.408-.917.918.009.504.417.912.917.918l4.157 1.027.937 4.156c.123.588.51.914 1.012.922.51-.004.924-.418.92-.918l-.187-4.297c.361-.091.706-.271.99-.554l4.053-4.055 2.432 8.09c.531 1.379 1.065 2.111 2.196 2.113 1.129-.002 2.049-.922 2.058-2.06l-1.31-13.518 2.817-2.816c.825-.826.827-2.166.005-2.997-.829-.826-2.176-.824-3.001 0zm0 0" fill="#3A434E" sketch:type="MSShapeGroup"/></g></svg>
